dist/images/icons/react.svg

<svg width="50" height="45" viewBox="0 0 50 45" fill="none" xmlns="http://www.w3.org/2000/svg">
<path d="M40.8203 14.6328C40.2344 14.4375 39.7461 14.2422 39.2578 14.1445C39.2578 13.7539 39.3555 13.3633 39.4531 12.9727C40.625 7.21094 39.8438 2.52344 37.207 0.960938C34.668 -0.503906 30.4688 1.05859 26.1719 4.76953C25.7812 5.0625 25.3906 5.45312 25 5.84375C24.707 5.55078 24.4141 5.35547 24.2188 5.0625C19.7266 1.15625 15.2344 -0.503906 12.5977 1.05859C10.0586 2.52344 9.27734 6.91797 10.3516 12.4844C10.4492 12.9727 10.5469 13.5586 10.7422 14.0469C10.0586 14.2422 9.47266 14.4375 8.88672 14.6328C3.71094 16.4883 0 19.3203 0 22.25C0 25.2773 3.90625 28.4023 9.375 30.2578C9.76562 30.3555 10.2539 30.5508 10.6445 30.6484C10.5469 31.2344 10.4492 31.8203 10.2539 32.4062C9.27734 37.7773 10.0586 42.0742 12.5977 43.5391C15.2344 45.1016 19.7266 43.5391 24.0234 39.7305C24.3164 39.4375 24.707 39.1445 25 38.8516C25.4883 39.2422 25.8789 39.6328 26.3672 40.0234C30.5664 43.6367 34.668 45.1016 37.207 43.6367C39.8438 42.0742 40.7227 37.4844 39.6484 31.8203C39.5508 31.4297 39.4531 30.9414 39.3555 30.5508C39.6484 30.4531 39.9414 30.3555 40.2344 30.2578C45.8984 28.4023 50 25.375 50 22.25C50 19.3203 46.0938 16.3906 40.8203 14.6328ZM27.5391 6.33203C31.25 3.10938 34.5703 1.9375 36.1328 2.81641C37.793 3.69531 38.4766 7.60156 37.4023 12.582C37.3047 12.9727 37.3047 13.2656 37.207 13.5586C34.9609 13.0703 32.8125 12.7773 30.5664 12.582C29.2969 10.7266 27.9297 8.96875 26.4648 7.30859C26.8555 7.01562 27.1484 6.625 27.5391 6.33203ZM16.3086 27.3281C16.7969 28.207 17.2852 28.9883 17.8711 29.8672C16.3086 29.6719 14.7461 29.4766 13.2812 29.0859C13.7695 27.7188 14.2578 26.2539 14.8438 24.7891C15.332 25.668 15.8203 26.4492 16.3086 27.3281ZM13.2812 15.6094C14.7461 15.2188 16.2109 15.0234 17.7734 14.8281C17.2852 15.6094 16.7969 16.4883 16.3086 17.2695C15.8203 18.1484 15.332 18.9297 14.8438 19.8086C14.2578 18.3438 13.7695 16.9766 13.2812 15.6094ZM16.0156 22.3477C16.6016 20.9805 17.3828 19.6133 18.0664 18.3438C18.8477 17.0742 19.6289 15.8047 20.5078 14.5352C21.9727 14.4375 23.4375 14.3398 25 14.3398C26.4648 14.3398 28.0273 14.4375 29.3945 14.5352C30.2734 15.8047 31.0547 17.0742 31.8359 18.3438C32.5195 19.6133 33.3008 20.8828 33.8867 22.25C33.3008 23.6172 32.6172 24.9844 31.8359 26.2539C31.0547 27.5234 30.2734 28.793 29.4922 30.0625C28.0273 30.1602 26.4648 30.2578 25 30.2578C23.4375 30.2578 21.9727 30.1602 20.5078 30.0625C19.6289 28.793 18.8477 27.5234 18.0664 26.2539C17.3828 24.9844 16.6992 23.6172 16.0156 22.3477ZM33.5938 27.3281C34.1797 26.4492 34.5703 25.5703 35.0586 24.6914C35.6445 26.1562 36.2305 27.5234 36.7188 28.9883C35.1562 29.3789 33.6914 29.6719 32.1289 29.7695C32.6172 28.9883 33.1055 28.1094 33.5938 27.3281ZM35.0586 19.8086C34.5703 18.9297 34.082 18.1484 33.5938 17.2695C33.1055 16.4883 32.6172 15.6094 32.1289 14.8281C33.6914 15.0234 35.2539 15.3164 36.6211 15.6094C36.1328 17.0742 35.6445 18.4414 35.0586 19.8086ZM25 8.87109C25.9766 9.94531 26.9531 11.1172 27.832 12.3867C25.9766 12.2891 24.0234 12.2891 22.0703 12.3867C23.0469 11.1172 24.0234 9.94531 25 8.87109ZM13.6719 2.81641C15.332 1.9375 18.9453 3.30469 22.7539 6.625C23.0469 6.91797 23.2422 7.11328 23.5352 7.30859C21.9727 8.96875 20.6055 10.7266 19.3359 12.582C17.0898 12.7773 14.9414 13.0703 12.793 13.5586C12.5977 13.0703 12.5 12.582 12.4023 11.9961C11.5234 7.30859 12.1094 3.79297 13.6719 2.81641ZM11.2305 28.5977C10.8398 28.5 10.4492 28.4023 10.0586 28.207C8.00781 27.5234 5.56641 26.5469 3.90625 25.1797C2.92969 24.4961 2.24609 23.4219 2.05078 22.25C2.05078 20.4922 5.17578 18.1484 9.57031 16.5859C10.1562 16.3906 10.7422 16.293 11.3281 16.0977C11.9141 18.2461 12.793 20.2969 13.6719 22.3477C12.6953 24.3008 11.9141 26.4492 11.2305 28.5977ZM22.6562 38.168C20.9961 39.6328 19.1406 40.8047 17.0898 41.5859C16.0156 42.1719 14.8438 42.1719 13.6719 41.7812C12.1094 40.8047 11.5234 37.3867 12.4023 32.7969C12.5 32.2109 12.5977 31.625 12.6953 31.1367C14.9414 31.625 17.0898 31.918 19.3359 32.1133C20.6055 33.8711 22.0703 35.6289 23.5352 37.2891C23.2422 37.582 22.9492 37.875 22.6562 38.168ZM25 35.8242C24.0234 34.75 23.0469 33.5781 22.0703 32.2109C23.0469 32.3086 24.0234 32.3086 25 32.3086C25.9766 32.3086 26.9531 32.3086 27.9297 32.2109C27.0508 33.4805 26.0742 34.6523 25 35.8242ZM37.793 38.7539C37.6953 39.9258 37.1094 41 36.2305 41.7812C34.668 42.6602 31.3477 41.4883 27.7344 38.4609C27.3438 38.0703 26.9531 37.6797 26.4648 37.2891C28.0273 35.6289 29.3945 33.9688 30.6641 32.1133C32.9102 31.918 35.0586 31.5273 37.3047 31.0391C37.4023 31.4297 37.5 31.8203 37.5977 32.2109C37.9883 34.3594 38.0859 36.6055 37.793 38.7539ZM39.5508 28.207C39.2578 28.3047 39.0625 28.4023 38.7695 28.5C38.0859 26.3516 37.207 24.3008 36.2305 22.25C37.207 20.2969 37.9883 18.2461 38.6719 16.0977C39.1602 16.293 39.6484 16.3906 40.1367 16.5859C44.6289 18.1484 47.8516 20.4922 47.8516 22.25C47.8516 24.1055 44.4336 26.6445 39.5508 28.207ZM25 26.7422C27.4414 26.7422 29.3945 24.7891 29.3945 22.25C29.3945 19.8086 27.4414 17.8555 25 17.8555C22.4609 17.8555 20.5078 19.8086 20.5078 22.25C20.5078 24.7891 22.4609 26.7422 25 26.7422Z" fill="#fff"/>
</svg>

<svg width="50" height="45" fill="none" xmlns="http://www.w3.org/2000/svg"><path d="M40.82 14.633c-.586-.195-1.074-.39-1.562-.488 0-.391.097-.782.195-1.172 1.172-5.762.39-10.45-2.246-12.012-2.539-1.465-6.738.098-11.035 3.809-.39.293-.781.683-1.172 1.074-.293-.293-.586-.489-.781-.782-4.492-3.906-8.985-5.566-11.621-4.003-2.54 1.464-3.32 5.859-2.246 11.425.097.489.195 1.075.39 1.563-.683.195-1.27.39-1.855.586C3.71 16.488 0 19.32 0 22.25c0 3.027 3.906 6.152 9.375 8.008.39.098.879.293 1.27.39-.098.586-.196 1.172-.391 1.758-.977 5.371-.195 9.668 2.344 11.133 2.636 1.563 7.129 0 11.425-3.809.293-.292.684-.585.977-.878.488.39.879.78 1.367 1.171 4.2 3.614 8.301 5.079 10.84 3.614 2.637-1.563 3.516-6.153 2.441-11.817-.097-.39-.195-.879-.293-1.27l.88-.292C45.897 28.402 50 25.375 50 22.25c0-2.93-3.906-5.86-9.18-7.617zM27.54 6.332c3.71-3.223 7.03-4.394 8.593-3.516 1.66.88 2.344 4.786 1.27 9.766-.098.39-.098.684-.196.977-2.246-.489-4.395-.782-6.64-.977a54.327 54.327 0 00-4.102-5.273c.39-.293.683-.684 1.074-.977zM16.308 27.328c.488.879.976 1.66 1.562 2.54-1.562-.196-3.125-.391-4.59-.782.489-1.367.977-2.832 1.563-4.297.488.879.976 1.66 1.465 2.54zM13.28 15.61c1.465-.39 2.93-.586 4.492-.78-.488.78-.976 1.66-1.464 2.44-.489.88-.977 1.66-1.465 2.54-.586-1.465-1.074-2.832-1.563-4.2zm2.735 6.739c.586-1.367 1.367-2.735 2.05-4.004.782-1.27 1.563-2.54 2.442-3.809 1.465-.098 2.93-.195 4.492-.195 1.465 0 3.027.098 4.395.195.878 1.27 1.66 2.54 2.44 3.809.684 1.27 1.466 2.539 2.052 3.906a30.92 30.92 0 01-2.051 4.004l-2.344 3.808c-1.465.098-3.027.196-4.492.196-1.563 0-3.027-.098-4.492-.195-.88-1.27-1.66-2.54-2.442-3.81-.683-1.269-1.367-2.636-2.05-3.905zm17.578 4.98c.586-.879.976-1.758 1.465-2.637.586 1.465 1.172 2.832 1.66 4.297-1.563.39-3.028.684-4.59.782.488-.782.977-1.66 1.465-2.442zm1.465-7.52c-.489-.878-.977-1.66-1.465-2.538-.489-.782-.977-1.66-1.465-2.442 1.562.195 3.125.488 4.492.781-.488 1.465-.977 2.832-1.562 4.2zM25 8.872c.977 1.074 1.953 2.246 2.832 3.516a56.717 56.717 0 00-5.762 0A55.83 55.83 0 0125 8.87zM13.672 2.816c1.66-.878 5.273.489 9.082 3.809.293.293.488.488.781.684-1.562 1.66-2.93 3.418-4.2 5.273-2.245.195-4.394.488-6.542.977-.195-.489-.293-.977-.39-1.563-.88-4.687-.294-8.203 1.269-9.18zM11.23 28.598c-.39-.098-.78-.196-1.171-.391-2.051-.684-4.493-1.66-6.153-3.027a4.524 4.524 0 01-1.855-2.93c0-1.758 3.125-4.102 7.52-5.664.585-.195 1.171-.293 1.757-.488.586 2.148 1.465 4.199 2.344 6.25-.977 1.953-1.758 4.101-2.442 6.25zm11.426 9.57c-1.66 1.465-3.515 2.637-5.566 3.418-1.074.586-2.246.586-3.418.195-1.563-.976-2.149-4.394-1.27-8.984.098-.586.196-1.172.293-1.66 2.246.488 4.395.781 6.64.976 1.27 1.758 2.735 3.516 4.2 5.176l-.879.879zM25 35.824a39.07 39.07 0 01-2.93-3.613c.977.098 1.953.098 2.93.098.977 0 1.953 0 2.93-.098-.88 1.27-1.856 2.441-2.93 3.613zm12.793 2.93c-.098 1.172-.684 2.246-1.563 3.027-1.562.88-4.882-.293-8.496-3.32-.39-.39-.78-.781-1.27-1.172 1.563-1.66 2.93-3.32 4.2-5.176 2.246-.195 4.395-.586 6.64-1.074l.294 1.172c.39 2.148.488 4.395.195 6.543zm1.758-10.547c-.293.098-.489.195-.782.293-.683-2.148-1.562-4.2-2.538-6.25.976-1.953 1.757-4.004 2.44-6.152.49.195.977.293 1.466.488 4.492 1.562 7.715 3.906 7.715 5.664 0 1.855-3.418 4.395-8.301 5.957zM25 26.742c2.441 0 4.395-1.953 4.395-4.492A4.376 4.376 0 0025 17.855c-2.54 0-4.492 1.954-4.492 4.395 0 2.54 1.953 4.492 4.492 4.492z" fill="#fff"/></svg>
